!! 00000] TT[WS
!!!OTL: Xiu hebao
!!!ARE: Asia, China, Shanxi Heshun
!! Ethnic Group: Han
!! WI, 113 (2)
!!!SCT: J0132
!!!YEM: Copyright 1995, estate of Helmut Schaffrath.
**kern
*ICvox
*Ivox
*M2/4
*k[b-]
*F:
{8dd
4dd
8cc
=1
8ff
8dd
4cc
=2
8cc
16dd
16ff
8dd
8cc
=3
8dd
4a
8g
=4
2a}
=5
{8dd
4dd
8cc
=6
8ff
8dd
4cc
=7
8cc
16dd
16ff
8dd
8cc
=8
8dd
4a
8g
=9
4a}
{8a
8d
=10
4f
8cc
8dd
=11
8cc
8a
8cc
8g
=12
8g
8f
8a
8r}
=13
{8.a
16g
8f
8a
=14
8.g
16e
8g
8d
=15
8d
8c
[4d
=16
4d]}
{8a
8d
=17
4f
8cc
8dd
=18
8cc
8a
8cc
8g
=19
8g
8f
8a
8r}
=20
{8.a
16g
8f
8a
=21
8.g
16e
8g
8d
=22
8d
8c
[4d
=23
4d]
4r}
==
!!!AGN: Xiaodiao. Qingge
!!!ONB: ESAC (Essen Associative Code) Database: CHINA
!!!AMT: simple duple
!!!AIN: vox
!!!EED: Helmut Schaffrath
!!!EEV: 1.0
*-
!!!ONB: Tied note syntax fixed by Craig Sapp, 2004/05/03/
